X:1
T:Title
%%score { ( 1 3 ) | ( 2 4 ) }
L:1/8
M:3/4
K:Bb
V:1 treble nm="Grand Piano"
V:3 treble 
V:2 bass 
V:4 bass 
V:1
 z2 z[Q:1/4=100] [DF] [DF][DF] | [DB]3 [EA] [FB]c | d3 [Fd] [Fd][Fd] | [Ge]3 [Ge] [Fd][FB] | %4
[M:15/16] c3/2- c3 FG/-G/A |[M:3/4] [B,DB]3 [DB] [CAc][_Ad] | [Ge]3 [Ge] [Gd][Gc] | B3 B Ac | %8
[M:3/8] z3 |[M:4/4] z4 z/ d3/2- d2- | d2 z2 z/ B3/2- B2- | B2 z2 z/ c3/2- c2- | c2 z2 z4 | %13
 z4 z/ B3/2- B2- | B2 z2 z4 | z4 z/ [FB]3/2- [FB]2- |[M:5/8] [FB]2 z z2 | z5 |] %18
V:2
 z2 z [B,,B,] [B,,B,][B,,B,] | [B,,B,]3 [C,F,] [D,B,][K:treble][F,A,F] | %2
 [B,F]3[K:bass] [B,,B,] [B,,B,][B,,B,] | [B,,B,]3 [B,,B,] [B,,B,][D,B,] | %4
[M:15/16] [F,A,F]3/2- [F,A,F]3 [F,A,][F,C=E]/-[F,CE]/[F,C_E] |[M:3/4] B,,3 B,, F,B, | %6
 [E,B,]3 [C,C] [D,=B,][E,C] | [F,DF]3 [F,DF] [F,CF][F,A,E] |[M:3/8] z3 |[M:4/4] z8 | z8 | z8 | z8 | %13
 z4 z/ D3/2- D2- | D2 z2 z4 | z8 |[M:5/8] z5 | z5 |] %18
V:3
 x6 | x6 | x6 | x6 |[M:15/16] x15/2 |[M:3/4] x6 | x6 | x6 |[M:3/8] [DB]3- | %9
[M:4/4] [DB]>d- d/dd/- d/ z/ z/ ^F/- F/FF/- | F/^Fc/- c/BA/- A/ z/ z/ G/- G/GG/- | %11
 G/GB/- B/B=B/- B/ z/ z/ =E/- E/EE/- | E/=E[GB]/- [GB]/[FA][EG]/- [EG]<F- F2- | %13
 F>F- F/GA/- A/ z/ z/ F,/- F,/F,F,/- | F,/F,[DB]/- [DB]/[DAc][_Ad]/- [Ad]<[Ge]- [Ge]2- | %15
 [Ge]>[Ge]- [Ge]/[Gd][Gc]/- [Gc]/ z/ z/ D/- D/DD/- |[M:5/8] D/DBAc[DB]/- | %17
 [DB]- [DB]2- [DB]/ z/ z |] %18
V:4
 x6 | x5[K:treble] x | x3[K:bass] x3 | x6 |[M:15/16] x15/2 |[M:3/4] x6 | x6 | x6 | %8
[M:3/8] [B,,B,]3- |[M:4/4] [B,,B,]2 z2 z z/ [D,A,]/- [D,A,]/[D,A,][D,A,]/- | %10
 [D,A,]<.[D,A,] z2 z z/ [G,D]/- [G,D]/[G,D][G,D]/- | %11
 [G,D]<.[G,D] z2 z z/ [C,G,]/- [C,G,]/[C,G,][C,G,]/- | %12
 [C,G,]/[C,G,][C,C]/- [C,C]/[C,C][C,B,]/- [C,B,]<[F,A,]- [F,A,]2- | %13
 [F,A,]2 z/ =E_E/- E/ z/ z/ B,,/- B,,/B,,B,,/- | B,,/B,,B,,/- B,,/F,B,/- B,<[E,B,]- [E,B,]2- | %15
 [E,B,]>[C,C]- [C,C]/[D,=B,][E,C]/- [E,C]/[F,D]F,/- F,/F,F,/- | %16
[M:5/8] F,/F,[F,DF][F,CE][F,A,E][B,,B,]/- | [B,,B,]- [B,,B,]2- [B,,B,]/ z/ z |] %18

